Sources/FrostedUI/Resources/Icons.xcassets/trashSolid24.imageset/trash-solid-24.svg

<svg
  width="24"
  height="24"
  viewBox="0 0 24 24"
  fill="none"
  xmlns="http://www.w3.org/2000/svg"
  data-fui-icon="true"
>
  <path
    d="M17.6231 19.8697L18.25 7.75H12H5.75L6.37688 19.8697C6.44588 21.2037 7.54768 22.25 8.88353 22.25H15.1165C16.4523 22.25 17.5541 21.2037 17.6231 19.8697Z"
    fill="currentColor"
    stroke="currentColor"
    stroke-width="1.5"
    stroke-linecap="round"
    stroke-linejoin="round"
  />
  <path
    d="M8.5 5.75L8.8294 3.99321C9.07328 2.69253 10.209 1.75 11.5323 1.75H12.4677C13.791 1.75 14.9267 2.69253 15.1706 3.99321L15.5 5.75M3.75 5.75H20.25"
    stroke="currentColor"
    stroke-width="1.5"
    stroke-linecap="round"
    stroke-linejoin="round"
  />
</svg>

<svg xmlns="http://www.w3.org/2000/svg" width="24" height="24" fill="none" data-fui-icon="true" viewBox="0 0 24 24"><path fill="currentColor" stroke="currentColor" stroke-linecap="round" stroke-linejoin="round" stroke-width="1.5" d="m17.623 19.87.627-12.12H5.75l.627 12.12a2.51 2.51 0 0 0 2.507 2.38h6.233a2.51 2.51 0 0 0 2.506-2.38"/><path stroke="currentColor" stroke-linecap="round" stroke-linejoin="round" stroke-width="1.5" d="m8.5 5.75.33-1.757a2.75 2.75 0 0 1 2.702-2.243h.936a2.75 2.75 0 0 1 2.703 2.243L15.5 5.75m-11.75 0h16.5"/></svg>
